img/contacts/clock.svg

<svg viewBox="0 0 25 25" fill="none" xmlns="http://www.w3.org/2000/svg">
<path d="M12.5 0C5.61111 0 0 5.61111 0 12.5C0 19.3889 5.61111 25 12.5 25C19.3889 25 25 19.3889 25 12.5C25 5.61111 19.3889 0 12.5 0ZM13 23.9444C11.9444 23.9444 13 23.9444 11.9444 23.9444C6.05556 23.6667 1.27778 18.9444 1.05556 13.0556C1.05556 12 1.05556 13.0556 1.05556 12C1.33333 6.11111 6.05556 1.33333 11.9444 1.11111C13 1.11111 11.9444 1.11111 13 1.11111C18.8889 1.38889 23.6667 6.11111 23.8889 12C23.8889 13.0556 23.8889 12 23.8889 13.0556C23.6667 18.9444 18.9444 23.6667 13 23.9444Z" fill="#8E81AC"/>
<path d="M13.5 12.7778C13.5 12.6667 13.5556 12.6111 13.5556 12.5C13.5556 12.2778 13.5 12.1111 13.3333 11.9444L16.6111 4.94444C16.7222 4.66667 16.6111 4.38889 16.3333 4.27778C16.0556 4.16667 15.7778 4.27778 15.6667 4.55556L12.3889 11.5556C11.8889 11.6111 11.4444 12.0556 11.4444 12.5556C11.4444 13.1111 11.8889 13.6111 12.5 13.6111C12.6111 13.6111 12.6667 13.5556 12.7778 13.5556L16.8333 17.6111C16.9444 17.7222 17.0556 17.7778 17.2222 17.7778C17.3333 17.7778 17.5 17.7222 17.6111 17.6111C17.8333 17.3889 17.8333 17.0556 17.6111 16.8889L13.5 12.7778Z" fill="#8E81AC"/>
</svg>

<svg viewBox="0 0 25 25" fill="none" xmlns="http://www.w3.org/2000/svg"><path d="M12.5 0C5.611 0 0 5.611 0 12.5S5.611 25 12.5 25 25 19.389 25 12.5 19.389 0 12.5 0zm.5 23.944h-1.056c-5.888-.277-10.666-5-10.888-10.888V12c.277-5.889 5-10.667 10.888-10.889H13c5.889.278 10.667 5 10.889 10.889v1.056c-.222 5.888-4.945 10.61-10.889 10.888z" fill="#8E81AC"/><path d="M13.5 12.778c0-.111.056-.167.056-.278a.713.713 0 00-.223-.556l3.278-7c.111-.277 0-.555-.278-.666-.277-.111-.555 0-.666.278l-3.278 7c-.5.055-.945.5-.945 1 0 .555.445 1.055 1.056 1.055.111 0 .167-.055.278-.055l4.055 4.055a.505.505 0 00.39.167.6.6 0 00.388-.167c.222-.222.222-.555 0-.722L13.5 12.778z" fill="#8E81AC"/></svg>
